modules/themify-icons/icons/menu-alt.svg

<?xml version="1.0" encoding="utf-8"?>
<!-- Generated by IcoMoon.io -->
<!DOCTYPE svg PUBLIC "-//W3C//DTD SVG 1.1//EN" "http://www.w3.org/Graphics/SVG/1.1/DTD/svg11.dtd">
<svg version="1.1" xmlns="http://www.w3.org/2000/svg" xmlns:xlink="http://www.w3.org/1999/xlink" width="17" height="17" viewBox="0 0 17 17">
<g>
</g>
	<path d="M16 2v2h-11v-2h11zM5 9h11v-2h-11v2zM5 14h11v-2h-11v2zM2 2c-0.552 0-1 0.447-1 1s0.448 1 1 1 1-0.447 1-1-0.448-1-1-1zM2 7c-0.552 0-1 0.447-1 1s0.448 1 1 1 1-0.447 1-1-0.448-1-1-1zM2 12c-0.552 0-1 0.447-1 1s0.448 1 1 1 1-0.447 1-1-0.448-1-1-1z" fill="#000000" />
</svg>

<svg xmlns="http://www.w3.org/2000/svg" width="17" height="17"><path d="M16 2v2H5V2h11zM5 9h11V7H5v2zm0 5h11v-2H5v2zM2 2a1 1 0 1 0 0 2 1 1 0 0 0 0-2zm0 5a1 1 0 1 0 0 2 1 1 0 0 0 0-2zm0 5a1 1 0 1 0 0 2 1 1 0 0 0 0-2z"/></svg>
